X: 20712
M: C
L: 1/16
K: D
de f3cd2A2 |\
(cd)e2 z2AA f3e (dc)(BA) | ^GFE2 z2eG A4 z2Af |\
e4- e>fe>f e>fe>f e>fe>f |
e4- e>fd>c d>Bc>d T^G4 |\
f2e2 z2e>f (g>f)(f>e) (e>d)(d>c) | (c>BA2) z2Ad B4- B>Bc>d |\
c4 c{dc}BcA d4- dfe>d |
c2B2 z2AB A>BA>B A>dA>B |\
d4 z2 |]


